!!!COM:	Bach, Johann Sebastian
!!!CDT:	1685/02/21/-1750/07/28/
!!!OTL@@DE:	Welt, ade! ich bin dein müde
!!!SCT:	BWV Anh. 170
!!!PC#:	150
!!!AGN:	chorale
**kern	**kern	**kern	**kern	**kern
*ICvox	*ICvox	*ICvox	*ICvox	*ICvox
*Ibass	*Itenor	*Ialto	*Isoprn	*Isoprn2
*I"Bass	*I"Tenor	*I"Alto	*I"Soprano	*I"Soprano2
*clefF4	*clefGv2	*clefG2	*clefG2	*clefG2
*k[b-e-]	*k[b-e-]	*k[b-e-]	*k[b-e-]	*k[b-e-]
*B-:	*B-:	*B-:	*B-:	*B-:
*M4/4	*M4/4	*M4/4	*M4/4	*M4/4
=1	=1	=1	=1	=1
4B-	4d	4f	2r	2r
4B-	4d	4f	.	.
[2B-	[2d	[2f	4r	4r
.	.	.	8b-	8dd
.	.	.	8b-	8dd
=2	=2	=2	=2	=2
4B-]	4d]	4f]	4dd	4.ff
4D	4d	4f	4b-	.
.	.	.	.	8ff
4E-	4c	4g	4cc	4ee-
4F	4c	4f	4a	4cc
=3	=3	=3	=3	=3
2BB-	2B-	2f	2b-	2dd
4FF	4c	4f	2a	2cc
8F	8A	8f	.	.
8F	8A	8f	.	.
=4	=4	=4	=4	=4
2.G	2.B-	2.d	4r	4r
.	.	.	8g	8b-
.	.	.	8g	8b-
.	.	.	4g	8b-
.	.	.	.	8a
4G	4B-	4B-	4g	8b-
.	.	.	.	8cc
=5	=5	=5	=5	=5
4B-	4B-	4B-	4.f	4dd
4F	4A	4c	.	4cc
.	.	.	8f	.
2BB-;	2B-;	2d;	2f;	2b-;
=:||6	=6	=6	=6	=6
4BB-	4B-	4f	4f	4dd
4C	4G	4e-	4cc	4ee-
4D	4F	4d	4a	4ff
4BB-	4B-	4d	4b-	4dd
=7	=7	=7	=7	=7
4FF	4c	4f	4a	4cc
4GG	4G	4d	2g	4b-
2D	2A	2d	.	2a
.	.	.	4f#	.
=8	=8	=8	=8	=8
2GG	2B-	2d	4g	4g
.	.	.	8b-	8dd
.	.	.	8b-	8dd
4r	4r	4r	2b-	[2ee-
8G	8B-	8g	.	.
8G	8B-	8g	.	.
=9	=9	=9	=9	=9
4A	4c	4.f	4f	4ee-]
4B-	4B-	.	2b-	4dd
.	.	8f	.	.
4.F	4.c	4f	.	4.cc
.	.	4f	4a	.
8F	8c	.	.	8cc
=10	=10	=10	=10	=10
1BB-	1d	1f	1b-	1b-
=11	=11	=11	=11	=11
4D	4d	4f	4f	4a
4D	4d	4d	4f	4a
4D	4B-	4d	4g	4b-
4C	4A	4e	4a	4cc
=12	=12	=12	=12	=12
4.BB-	4d	4.d	4a	4.dd
.	4D	.	4g	.
8BB-	.	8d	.	8dd
2AA;	2A;	2e;	2a;	2cc#;
=13	=13	=13	=13	=13
4FF	4A	4f	4a	4ff
4FF	4C	4f	4a	4ff
4C	4C	4g	4g	4ee
4D	4A	4f	4dd	4dd
=14	=14	=14	=14	=14
4.AA	4.A	4.e	4dd	4.ee
.	.	.	4cc#	.
8AA	8A	8e	.	8ee
2D;	2A;	2f#;	2dd;	2dd;
=15	=15	=15	=15	=15
*M3/2	*M3/2	*M3/2	*M3/2	*M3/2
1E-	1G	1g	1g	1b-
2C	2c	2e-	2a	2cc
=16	=16	=16	=16	=16
1BB-	1F	1f	1b-	1dd
2D	2F	2f	2b-	2ff
=17	=17	=17	=17	=17
1C	1c	1g	1b-	1ee-
2C	2c	2e-	2a	2ee-
=18	=18	=18	=18	=18
1.BB-	1.d	1.f	1.b-	1.dd
=19	=19	=19	=19	=19
1B-	1d	1f	1dd	1ff
2A	2f	2f	2cc	2ff
=20	=20	=20	=20	=20
1.B-	1d	1.f	1b-	1.ff
.	2d	.	2b-	.
=21	=21	=21	=21	=21
2E-	1c	2g	1b-	2ee-
2.F	.	2.f	.	2.cc
.	2c	.	2a	.
4F	.	4f	.	4cc
=22	=22	=22	=22	=22
1.BB-;	1.d;	1.f;	1.b-;	1.b-;
==	==	==	==	==
*-	*-	*-	*-	*-
!!!YOR1: 371 vierstimmige Choralges&auml;nge von Johann Sebastian Bach, 
!!!YOR2: 4th ed. by Alfred D&ouml;rffel (Leipzig: Breitkopf und H&auml;rtel, 
!!!YOR3: c.1875). 178 pp. Plate "V.A.10".  reprint: J.S. Bach, 371 Four-Part 
!!!YOR4: Chorales (New York: Associated Music Publishers, Inc., c.1940).
!!!SMS: B&H, 4th ed, Alfred D&ouml;rffel, c.1875, plate V.A.10
!!!EED:  Nathaniel Condit-Schultz
!!!EED:  I added this one 5-part chorale to the set for the sake of completeness of the "vierstimmige Chorale" book
!!!EEV:  2018/03/28
